public/avatar/item2/51.svg

<svg xmlns:xlink="http://www.w3.org/1999/xlink" height="99.2" width="82.2" xmlns="http://www.w3.org/2000/svg"><use height="20.1" transform="translate(14.5 69.9)" width="32.25" xlink:href="#a"/><defs><g id="a" fill-rule="evenodd"><path d="M.4 31.75q.45 0 .55.4.45 2.4-.9 5.95l-.25.25h-.15l-.45-.2-.15.8-.4.4-2.55.7-2.5.2-.3-.3.1-.5q1.5-1.8 1.5-3.45l.2-.45.35-.15.05-.05-.25-.3.15-.45q.75-.7 1.7-1.35 1.85-1.3 3.3-1.5" fill="#333e49" transform="translate(16.5 -23.15)"/><path d="M-2.65 34.05Q-1.1 32.9.1 32.75q.4 1.75-.8 4.85l-.5-.8-.4 1.65-1.85.6-2.15.25q1.55-1.95 1.25-3.3.25-.2 1.25-.45l-.85-.4 1.3-1.1" fill="#fff" transform="translate(16.5 -23.15)"/><path d="m-1.5 33.25.5.55-.45.65-.55.7-.35.6-.3-.05-.15.25-.3.75-1.75 1.8-.05.05.35-1.2.45-1.3 1.15-.55q-.2-.45-.55-.45l.75-.55 1.25-1.25m-.1 3.3v-.75l.65-.85.5-.7.25-.55.05-.05q.35.1-.1.95l-.85 1.8-.1-.75-.4.9" fill="#abd9ff" transform="translate(16.5 -23.15)"/><path d="M-2.1 35.5 0 33q.4.2-1.7 2.75l-.1.65-.55-.05v.35q-.1.5-2.65 2.35l2.25-2.4.1-.8.5.1.05-.45" fill="#333e49" transform="translate(16.5 -23.15)"/><path d="M.55 31.55q2.3 1.45 3.7 4.9v.35l-.05.15q-.2.3-.5.2l.5.7v.6L2.9 41l-1.6 2.15q-.25.2-.45 0l-.3-.4q-.2-1.8-1.45-3.65l-.2-.45.1-.4.05-.05-.4-.05-.2-.45q.05-4 1.45-6.05.3-.35.65-.1" fill="#333e49" transform="translate(16.5 -23.15)"/><path d="m2.4 39.8-1.25 1.9q-.25-2.25-1.5-3.25L.2 37.2l-.85.35q-.05-3.05 1.1-4.7 1.45.9 2.8 3.85l-.85-.1.85 1.4-.85 1.8" fill="#fff" transform="translate(16.5 -23.15)"/><path d="m.4 34.4.2.8.1.85.2.7-.25.2.1.3.3.75.05 2.65-.2-.4-.4-.75-.65-1.2.45-1.25-.75.15.2-.95-.05-1.85h.7m.5-.7v-.05q.2-.1.6.7l.7 1.9-.6-.5.35.95-.5-.5-.2-1.1-.15-.8-.2-.6" fill="#abd9ff" transform="translate(16.5 -23.15)"/><path d="m1.3 36.25.4.5-.4.4.25.25q.25.4-.2 3.65l-.15-3.4-.45-.6.4-.35-.25-.3-.35-3.3.4 1.4.35 1.75" fill="#333e49" transform="translate(16.5 -23.15)"/><path d="M15.05 23.2q.35-.2.6.15.25.25 0 .6Q12 28.9.15 33.05l-.3.05q-4.8-1.3-10.95-5.3l-5.2-3.75q-.35-.3-.1-.65.2-.35.6-.2l15.5 6.7q3.85-.9 15.35-6.7" fill="#082473" transform="translate(16.5 -23.15)"/><path d="M15.25 23.65Q12.9 26.95 0 32.05q-4.5-1.35-10.75-5-6.05-3.55-5.25-3.4 10.4 5.65 15.65 7.3 7.25-2.1 15.6-7.3" fill="#2d7df2" transform="translate(16.5 -23.15)"/><path d="m.1 32.05.2-1.3q7.3-2.35 14.95-7.1-2.3 3.25-15.15 8.4" fill="#2d4af2" transform="translate(16.5 -23.15)"/><path d="M1.55 29.65q.75.85.75 1.8 0 2.6-2.6 2.6-2.55 0-2.55-2.6 0-2.55 2.55-2.55 1.1 0 1.85.75" fill="#4f0000" transform="translate(16.5 -23.15)"/><path d="M-.3 29.85q1.65 0 1.65 1.6 0 1.65-1.65 1.65-1.6 0-1.6-1.65 0-1.6 1.6-1.6" fill="#d80000" transform="translate(16.5 -23.15)"/><path d="M.4 30q.95.5.95 1.45 0 1.65-1.65 1.65-1.1 0-1.5-1l.8.2q1.6 0 1.6-1.6L.4 30" fill="#8f0000" transform="translate(16.5 -23.15)"/><path d="M-7.3 27.6q.65-.65 1.65-.65 2.3 0 2.3 2.3 0 2.35-2.3 2.35-.95 0-1.65-.7t-.7-1.65q0-.95.7-1.65" fill="#4f0000" transform="translate(16.5 -23.15)"/><path d="M-4.25 29.25q0 1.4-1.4 1.4t-1.4-1.4q0-1.4 1.4-1.4t1.4 1.4" fill="#d80000" transform="translate(16.5 -23.15)"/><path d="M-4.55 28.45q.3.3.3.8 0 1.4-1.4 1.4-.75 0-1.2-.6l.6.1q1.7 0 1.7-1.65v-.05" fill="#8f0000" transform="translate(16.5 -23.15)"/><path d="M2.65 29.2q0-2.3 2.3-2.3 2.35 0 2.35 2.3 0 2.35-2.35 2.35-2.3 0-2.3-2.35" fill="#4f0000" transform="translate(16.5 -23.15)"/><path d="M6.5 29.2q0 1.6-1.55 1.6T3.4 29.2q0-1.55 1.55-1.55T6.5 29.2" fill="#d80000" transform="translate(16.5 -23.15)"/><path d="M4.95 27.65q1.55 0 1.55 1.55 0 1.6-1.55 1.6-.95 0-1.4-.95l.65.2q1.3 0 1.3-1.3 0-.7-.65-1.05l.1-.05" fill="#8f0000" transform="translate(16.5 -23.15)"/><path d="M-5.45 28.85q0 .45-.6.45t-.6-.45q0-.5.6-.5t.6.5M-.4 30.9q0 .55-.6.55-.55 0-.55-.55t.55-.55q.6 0 .6.55m5.15-2q0 .55-.55.55t-.55-.55q0-.55.55-.55t.55.55" fill="#ff6e6e" transform="translate(16.5 -23.15)"/></g></defs></svg>

<?xml version="1.0" encoding="UTF-8" standalone="no"?>
<svg xmlns:xlink="http://www.w3.org/1999/xlink" height="99.2px" width="82.2px" xmlns="http://www.w3.org/2000/svg">
  <g transform="matrix(1.0, 0.0, 0.0, 1.0, 31.0, 46.75)">
    <use height="20.1" transform="matrix(1.0, 0.0, 0.0, 1.0, -16.5, 23.15)" width="32.25" xlink:href="#shape0"/>
  </g>
  <defs>
    <g id="shape0" transform="matrix(1.0, 0.0, 0.0, 1.0, 16.5, -23.15)">
      <path d="M0.4 31.75 Q0.85 31.75 0.95 32.15 1.4 34.55 0.05 38.1 L-0.2 38.35 -0.35 38.35 -0.8 38.15 -0.95 38.95 -1.35 39.35 -3.9 40.05 -6.4 40.25 -6.7 39.95 -6.6 39.45 Q-5.1 37.65 -5.1 36.0 L-4.9 35.55 -4.55 35.4 -4.5 35.35 -4.75 35.05 -4.6 34.6 Q-3.85 33.9 -2.9 33.25 -1.05 31.95 0.4 31.75" fill="#333e49" fill-rule="evenodd" stroke="none"/>
      <path d="M-2.65 34.05 Q-1.1 32.9 0.1 32.75 0.5 34.5 -0.7 37.6 L-1.2 36.8 -1.6 38.45 -3.45 39.05 -5.6 39.3 Q-4.05 37.35 -4.35 36.0 -4.1 35.8 -3.1 35.55 L-3.95 35.15 -2.65 34.05" fill="#ffffff" fill-rule="evenodd" stroke="none"/>
      <path d="M-1.5 33.25 L-1.0 33.8 -1.45 34.45 -2.0 35.15 -2.35 35.75 -2.65 35.7 -2.8 35.95 -3.1 36.7 -4.85 38.5 -4.9 38.55 -4.55 37.35 -4.1 36.05 -2.95 35.5 Q-3.15 35.05 -3.5 35.05 L-2.75 34.5 -1.5 33.25" fill="#abd9ff" fill-rule="evenodd" stroke="none"/>
      <path d="M-1.6 36.55 L-1.6 35.8 -0.95 34.95 -0.45 34.25 -0.2 33.7 -0.15 33.65 Q0.2 33.75 -0.25 34.6 L-1.1 36.4 -1.2 35.65 -1.6 36.55" fill="#abd9ff" fill-rule="evenodd" stroke="none"/>
      <path d="M-2.1 35.5 L0.0 33.0 Q0.4 33.2 -1.7 35.75 L-1.8 36.4 -2.35 36.35 -2.35 36.7 Q-2.45 37.2 -5.0 39.05 L-2.75 36.65 -2.65 35.85 -2.15 35.95 -2.1 35.5" fill="#333e49" fill-rule="evenodd" stroke="none"/>
      <path d="M0.55 31.55 Q2.85 33.0 4.25 36.45 L4.25 36.8 4.2 36.95 Q4.0 37.25 3.7 37.15 L4.2 37.85 4.2 38.45 2.9 41.0 1.3 43.15 Q1.05 43.35 0.85 43.15 L0.55 42.75 Q0.35 40.95 -0.9 39.1 L-1.1 38.65 -1.0 38.25 -0.95 38.2 -1.35 38.15 -1.55 37.7 Q-1.5 33.7 -0.1 31.65 0.2 31.3 0.55 31.55" fill="#333e49" fill-rule="evenodd" stroke="none"/>
      <path d="M2.4 39.8 L1.15 41.7 Q0.9 39.45 -0.35 38.45 L0.2 37.2 -0.65 37.55 Q-0.7 34.5 0.45 32.85 1.9 33.75 3.25 36.7 L2.4 36.6 3.25 38.0 2.4 39.8" fill="#ffffff" fill-rule="evenodd" stroke="none"/>
      <path d="M0.4 34.4 L0.6 35.2 0.7 36.05 0.9 36.75 0.65 36.95 0.75 37.25 1.05 38.0 1.1 40.65 0.9 40.25 0.5 39.5 -0.15 38.3 0.3 37.05 -0.45 37.2 -0.25 36.25 -0.3 34.4 0.4 34.4" fill="#abd9ff" fill-rule="evenodd" stroke="none"/>
      <path d="M0.9 33.7 L0.9 33.65 Q1.1 33.55 1.5 34.35 L2.2 36.25 1.6 35.75 1.95 36.7 1.45 36.2 1.25 35.1 1.1 34.3 0.9 33.7" fill="#abd9ff" fill-rule="evenodd" stroke="none"/>
      <path d="M1.3 36.25 L1.7 36.75 1.3 37.15 1.55 37.4 Q1.8 37.8 1.35 41.05 L1.2 37.65 0.75 37.05 1.15 36.7 0.9 36.4 0.55 33.1 0.95 34.5 1.3 36.25" fill="#333e49" fill-rule="evenodd" stroke="none"/>
      <path d="M15.05 23.2 Q15.4 23.0 15.65 23.35 15.9 23.6 15.65 23.95 12.0 28.9 0.15 33.05 L-0.15 33.1 Q-4.95 31.8 -11.1 27.8 L-16.3 24.05 Q-16.65 23.75 -16.4 23.4 -16.2 23.05 -15.8 23.2 L-0.3 29.9 Q3.55 29.0 15.05 23.2" fill="#082473" fill-rule="evenodd" stroke="none"/>
      <path d="M15.25 23.65 Q12.9 26.95 0.0 32.05 -4.5 30.7 -10.75 27.05 -16.8 23.5 -16.0 23.65 -5.6 29.3 -0.35 30.95 6.9 28.85 15.25 23.65" fill="#2d7df2" fill-rule="evenodd" stroke="none"/>
      <path d="M0.1 32.05 L0.3 30.75 Q7.6 28.4 15.25 23.65 12.95 26.9 0.1 32.05" fill="#2d4af2" fill-rule="evenodd" stroke="none"/>
      <path d="M1.55 29.65 Q2.3 30.5 2.3 31.45 2.3 34.05 -0.3 34.05 -2.85 34.05 -2.85 31.45 -2.85 28.9 -0.3 28.9 0.8 28.9 1.55 29.65" fill="#4f0000" fill-rule="evenodd" stroke="none"/>
      <path d="M-0.3 29.85 Q1.35 29.85 1.35 31.45 1.35 33.1 -0.3 33.1 -1.9 33.1 -1.9 31.45 -1.9 29.85 -0.3 29.85" fill="#d80000" fill-rule="evenodd" stroke="none"/>
      <path d="M0.4 30.0 Q1.35 30.5 1.35 31.45 1.35 33.1 -0.3 33.1 -1.4 33.1 -1.8 32.1 L-1.0 32.3 Q0.6 32.3 0.6 30.7 L0.4 30.0" fill="#8f0000" fill-rule="evenodd" stroke="none"/>
      <path d="M-7.3 27.6 Q-6.65 26.95 -5.65 26.95 -3.35 26.95 -3.35 29.25 -3.35 31.6 -5.65 31.6 -6.6 31.6 -7.3 30.9 -8.0 30.2 -8.0 29.25 -8.0 28.3 -7.3 27.6" fill="#4f0000" fill-rule="evenodd" stroke="none"/>
      <path d="M-4.25 29.25 Q-4.25 30.65 -5.65 30.65 -7.05 30.65 -7.05 29.25 -7.05 27.85 -5.65 27.85 -4.25 27.85 -4.25 29.25" fill="#d80000" fill-rule="evenodd" stroke="none"/>
      <path d="M-4.55 28.45 Q-4.25 28.75 -4.25 29.25 -4.25 30.65 -5.65 30.65 -6.4 30.65 -6.85 30.05 L-6.25 30.15 Q-4.55 30.15 -4.55 28.5 L-4.55 28.45" fill="#8f0000" fill-rule="evenodd" stroke="none"/>
      <path d="M2.65 29.2 Q2.65 26.9 4.95 26.9 7.3 26.9 7.3 29.2 7.3 31.55 4.95 31.55 2.65 31.55 2.65 29.2" fill="#4f0000" fill-rule="evenodd" stroke="none"/>
      <path d="M6.5 29.2 Q6.5 30.8 4.95 30.8 3.4 30.8 3.4 29.2 3.4 27.65 4.95 27.65 6.5 27.65 6.5 29.2" fill="#d80000" fill-rule="evenodd" stroke="none"/>
      <path d="M4.95 27.65 Q6.5 27.65 6.5 29.2 6.5 30.8 4.95 30.8 4.0 30.8 3.55 29.85 L4.2 30.05 Q5.5 30.05 5.5 28.75 5.5 28.05 4.85 27.7 L4.95 27.65" fill="#8f0000" fill-rule="evenodd" stroke="none"/>
      <path d="M-5.45 28.85 Q-5.45 29.3 -6.05 29.3 -6.65 29.3 -6.65 28.85 -6.65 28.35 -6.05 28.35 -5.45 28.35 -5.45 28.85" fill="#ff6e6e" fill-rule="evenodd" stroke="none"/>
      <path d="M-0.4 30.9 Q-0.4 31.45 -1.0 31.45 -1.55 31.45 -1.55 30.9 -1.55 30.35 -1.0 30.35 -0.4 30.35 -0.4 30.9" fill="#ff6e6e" fill-rule="evenodd" stroke="none"/>
      <path d="M4.75 28.9 Q4.75 29.45 4.2 29.45 3.65 29.45 3.65 28.9 3.65 28.35 4.2 28.35 4.75 28.35 4.75 28.9" fill="#ff6e6e" fill-rule="evenodd" stroke="none"/>
    </g>
  </defs>
</svg>
